public/assets/images/icons/white/export/lock-unlocked.svg

<?xml version="1.0"?><!DOCTYPE svg PUBLIC "-//W3C//DTD SVG 1.1//EN" "http://www.w3.org/Graphics/SVG/1.1/DTD/svg11.dtd"><svg width="16px" height="16px" xmlns="http://www.w3.org/2000/svg" viewBox="0 0 16 16" shape-rendering="geometricPrecision" fill="#fff"><defs><mask id="export-path"><rect fill="#fff" width="100%" height="100%"/><path d="M13.848-1.1l-1.797,1.795l0.286,0.287c-1.812,0.575-3.107,2.263-3.107,4.254v0.987h2.626 V5.235c0-0.491,0.191-0.954,0.538-1.302c0.01-0.01,0.021-0.02,0.03-0.03l1.425,1.421l3.212-3.213L13.848-1.1z" fill="#000"/></mask></defs><path id="export" display="inline" d="M13.848-0.04l-0.736,0.735l0.821,0.821h-0.234 l-0.156,0.008c-1.978,0.084-3.563,1.714-3.563,3.711v0.237h1.126V5.235c0-0.691,0.27-1.343,0.759-1.833 c0.49-0.489,1.141-0.759,1.833-0.759h0.237V2.643h0.063L13.112,3.53l0.735,0.734L16,2.111L13.848-0.04z" fill="#cb1800"/><g mask="url(#export-path)"><g><path d="M9.341,5.662c0-1.279,1.036-2.313,2.314-2.313c1.276,0,2.312,1.034,2.312,2.313v1.148h1.413V5.662 c0-2.06-1.668-3.728-3.725-3.728c-2.06,0-3.728,1.669-3.728,3.728v1.148h1.413V5.662z M0.62,7.792v7.207h9.875V7.792H0.62z M6.426,12.594c0,0.479-0.388,0.867-0.867,0.867c-0.481,0-0.871-0.389-0.871-0.867v-2.396c0-0.478,0.39-0.866,0.868-0.866 c0.482,0,0.87,0.389,0.87,0.866V12.594z"/></g></g></svg>

<svg width="16" height="16" xmlns="http://www.w3.org/2000/svg" viewBox="0 0 16 16" shape-rendering="geometricPrecision" fill="#fff"><defs><mask id="a"><rect width="100%" height="100%"/><path d="M13.848-1.1L12.051.695l.286.287A4.455 4.455 0 0 0 9.23 5.236v.987h2.626v-.988c0-.491.191-.954.538-1.302l.03-.03 1.425 1.421 3.212-3.213L13.848-1.1z" fill="#000"/></mask></defs><path d="M13.848-.04l-.736.735.821.821h-.234l-.156.008A3.722 3.722 0 0 0 9.98 5.235v.237h1.126v-.237c0-.691.27-1.343.759-1.833a2.579 2.579 0 0 1 1.833-.759h.3l-.886.887.735.734L16 2.111 13.848-.04z" fill="#cb1800"/><g mask="url(#a)"><path d="M9.341 5.662a2.312 2.312 0 1 1 4.626 0V6.81h1.413V5.662a3.726 3.726 0 1 0-7.453 0V6.81H9.34V5.662zM.62 7.792v7.207h9.875V7.792H.62zm5.806 4.802a.87.87 0 0 1-1.738 0v-2.396a.868.868 0 0 1 1.738 0v2.396z"/></g></svg>
